X:10449
%8275
T:Jota Miudes (El Franco)
C:Trad.
M:3/8
L:1/8
Q:1/4=100
K:C
E/2F/2E/2F/2|:G E/2F/2E/2F/2|G E/2F/2E/2F/2|G A/2G/2F/2E/2|FDB,|
|G, D/2E/2D/2E/2|F D/2E/2D/2E/2|F G/2F/2E/2D/2|E C2-|C E/2F/2E/2F/2:|
|F D/2E/2D/2E/2|F G/2F/2E/2D/2|CEG|CEG|G,B,D|G,B,D|
F,A,C|F,A,C|G,B,D|G,B,D|C E/2C/2E/2G/2|C E/2C/2E/2G/2|
|G, B,/2G,/2B,/2D/2
